Numix-GalliumOS/32/status/airplane-mode.svg

<?xml version="1.0" encoding="UTF-8" standalone="no"?>
<!-- Created with Inkscape (http://www.inkscape.org/) -->

<svg
   xmlns:dc="http://purl.org/dc/elements/1.1/"
   xmlns:cc="http://creativecommons.org/ns#"
   xmlns:rdf="http://www.w3.org/1999/02/22-rdf-syntax-ns#"
   xmlns:svg="http://www.w3.org/2000/svg"
   xmlns="http://www.w3.org/2000/svg"
   xmlns:sodipodi="http://sodipodi.sourceforge.net/DTD/sodipodi-0.dtd"
   xmlns:inkscape="http://www.inkscape.org/namespaces/inkscape"
   width="32"
   height="32"
   viewBox="0 0 32 32"
   id="SVGRoot"
   version="1.1"
   inkscape:version="0.91 r"
   sodipodi:docname="airplane-mode.svg">
  <sodipodi:namedview
     id="base"
     pagecolor="#ffffff"
     bordercolor="#666666"
     borderopacity="1.0"
     inkscape:pageopacity="0.0"
     inkscape:pageshadow="2"
     inkscape:zoom="8"
     inkscape:cx="41.36049"
     inkscape:cy="4.5036232"
     inkscape:document-units="px"
     inkscape:current-layer="layer1"
     showgrid="true"
     inkscape:window-width="1918"
     inkscape:window-height="971"
     inkscape:window-x="0"
     inkscape:window-y="34"
     inkscape:window-maximized="0"
     inkscape:grid-bbox="true">
    <inkscape:grid
       type="xygrid"
       id="grid29213" />
  </sodipodi:namedview>
  <defs
     id="defs28337">
    <clipPath
       id="clipPath-408241621">
      <g
         id="g3616"
         transform="translate(0,-1004.3622)">
        <path
           id="path3618"
           transform="matrix(15.333333,0,0,11.5,414.99999,878.8622)"
           d="m -24,13 c 0,1.105 -0.672,2 -1.5,2 -0.828,0 -1.5,-0.895 -1.5,-2 0,-1.105 0.672,-2 1.5,-2 0.828,0 1.5,0.895 1.5,2 z"
           inkscape:connector-curvature="0"
           style="fill:#1890d0" />
      </g>
    </clipPath>
    <clipPath
       id="clipPath-408241621-1">
      <g
         id="g3616-3"
         transform="translate(0,-1004.3622)">
        <path
           id="path3618-3"
           transform="matrix(15.333333,0,0,11.5,414.99999,878.8622)"
           d="m -24,13 c 0,1.105 -0.672,2 -1.5,2 -0.828,0 -1.5,-0.895 -1.5,-2 0,-1.105 0.672,-2 1.5,-2 0.828,0 1.5,0.895 1.5,2 z"
           inkscape:connector-curvature="0"
           style="fill:#1890d0" />
      </g>
    </clipPath>
  </defs>
  <metadata
     id="metadata28340">
    <rdf:RDF>
      <cc:Work
         rdf:about="">
        <dc:format>image/svg+xml</dc:format>
        <dc:type
           rdf:resource="http://purl.org/dc/dcmitype/StillImage" />
        <dc:title></dc:title>
      </cc:Work>
    </rdf:RDF>
  </metadata>
  <g
     id="layer1"
     inkscape:groupmode="layer"
     inkscape:label="Layer 1"
     transform="translate(0,-16)">
    <path
       style="fill:#71a6ce;fill-opacity:1;stroke:none;stroke-width:1;stroke-opacity:0.3492823"
       d="m 28.569195,19.430806 c -0.841319,-0.841319 -3.111338,0 -5.352721,2.241384 L 19.922393,24.966269 5.7618119,21.978033 C 4.7427044,21.785796 4.4495026,21.780065 3.9358642,22.284772 2.7304682,23.490215 2.7297553,23.490349 4.7125475,24.639683 L 15.004541,29.884122 9.3371806,35.551482 4.8605294,34.692675 C 4.33665,34.582283 4.3456346,34.54323 4.0174352,34.871369 l -0.3247547,0.324754 c -0.4949822,0.494983 0.2475659,1.081236 0.2475659,1.081236 l 4.6100142,3.172381 3.1723814,4.610014 c 0,0 0.586253,0.742548 1.081235,0.247566 l 0.324754,-0.324755 c 0.328139,-0.328199 0.289086,-0.319214 0.178694,-0.843094 l -0.858806,-4.47665 5.667361,-5.667361 5.244437,10.291992 c 1.149331,1.982791 1.14947,1.98208 2.354912,0.776684 0.504712,-0.513632 0.498975,-0.806841 0.306739,-1.825948 l -2.988236,-14.160581 3.294079,-3.294079 c 2.241384,-2.241385 3.082704,-4.511404 2.241384,-5.352722 z"
       id="path27922"
       inkscape:connector-curvature="0"
       sodipodi:nodetypes="ssccccccccscccsccccccccss" />
  </g>
</svg>

<svg xmlns="http://www.w3.org/2000/svg" viewBox="0 0 32 32">
 <g transform="translate(0,-16)">
  <path d="m 28.569 19.431 c -0.841 -0.841 -3.111 0 -5.353 2.241 l -3.294 3.294 -14.161 -2.988 c -1.019 -0.192 -1.312 -0.198 -1.826 0.307 -1.205 1.205 -1.206 1.206 0.777 2.355 l 10.292 5.244 -5.667 5.667 -4.477 -0.859 c -0.524 -0.11 -0.515 -0.149 -0.843 0.179 l -0.325 0.325 c -0.495 0.495 0.248 1.081 0.248 1.081 l 4.61 3.172 3.172 4.61 c 0 0 0.586 0.743 1.081 0.248 l 0.325 -0.325 c 0.328 -0.328 0.289 -0.319 0.179 -0.843 l -0.859 -4.477 5.667 -5.667 5.244 10.292 c 1.149 1.983 1.149 1.982 2.355 0.777 0.505 -0.514 0.499 -0.807 0.307 -1.826 l -2.988 -14.161 3.294 -3.294 c 2.241 -2.241 3.083 -4.511 2.241 -5.353 z" style="fill:#71a6ce;fill-opacity:1;stroke:none"/>
 </g>
</svg>
